X:1
T:Title
%%score 1 2 3
L:1/8
Q:1/4=180
M:4/4
K:E
V:1 treble nm="Picked Bass, Soprano Voice"
V:2 bass nm="Picked Bass, Tenor Voice"
V:3 bass nm="Picked Bass, Baritone Voice"
V:1
 B4 B2 B2 | c4 B4 | B8- | B4 B4 | c4 e2 c2 | B4 A4 | B8- | B4 G4 | B6 B2 | e6 d2 | c2 B2 A2 G2 | %11
w: Soprano~Voice * *|||||||||||
 F8- | F4 B4 | G2 A2 B2 c2 | B4 B4 | [GB]8 |] %16
w: |||||
V:2
 E,4 G,2 B,2 | E4 G,4 | F,8- | F,4 B,4 | A,4 B,2[K:treble] E2 | D4 C4 | B,8- | B,4 B,4 | %8
w: Tenor~Voice * *||||||||
 E3 F E2 D2 | C6[K:bass] B,2 | A,2 G,2 F,2 E,2 | B,8- | B,4 B,2 CD | E2 C2 B,2 A,2 | G,4 F,4 | %15
w: |||||||
 E,8 |] %16
w: |
V:3
 E,4 E,2 [B,,D,]2 | C,4 E,4 | B,,8- | B,,4 B,,4 | E,4 G,2 E,2 | F,4 F,4 | B,,8- | B,,4 E,4 | %8
w: Baritone~Voice * *||||||||
 E,6 G,2 | A,6 G,2 | F,2 E,2 D,2 C,2 | B,,8- | B,,4 E,4 | E,2 F,2 G,2 A,2 | B,4 B,,4 | E,8 |] %16
w: ||||||||

